dist/svg/static/list-small.svg

<?xml version="1.0" encoding="UTF-8" standalone="no"?>
<svg width="24px" height="24px" viewBox="0 0 24 24" version="1.1" xmlns="http://www.w3.org/2000/svg" xmlns:xlink="http://www.w3.org/1999/xlink">
    <!-- Generator: sketchtool 46.2 (44496) - http://www.bohemiancoding.com/sketch -->
    <title>list-small</title>
    <desc>Created with sketchtool.</desc>
    <defs></defs>
    <g id="icons-published" stroke="none" stroke-width="1" fill="none" fill-rule="evenodd">
        <g id="briefing" transform="translate(-2660.000000, -922.000000)"></g>
        <g id="list-small" stroke="#000000">
            <path d="M7,15.5 L12,15.5 M3,15.5 L5,15.5 M7,11.5 L16,11.5 M3,11.5 L5,11.5 M7,7.5 L21,7.5 M3,7.5 L5,7.5" id="Shape"></path>
        </g>
    </g>
</svg>

<svg xmlns="http://www.w3.org/2000/svg" width="24" height="24" viewBox="0 0 24 24"><g fill="none" stroke="currentColor" stroke-miterlimit="10"><path d="M7 15.5h5m-9 0h2m2-4h9m-13 0h2M7 7.5h14m-18 0h2"/></g></svg>
